img/menu.svg

<?xml version="1.0" encoding="UTF-8"?>
<!-- Generated by Pixelmator Pro 3.2.1 -->
<svg width="50" height="50" viewBox="0 0 50 50" xmlns="http://www.w3.org/2000/svg" xmlns:xlink="http://www.w3.org/1999/xlink">
    <path id="menu" fill="#currentcolor" fill-rule="evenodd" stroke="none" d="M 25 50 C 11.192895 50 0 38.807106 0 25 C 0 11.1929 11.192895 0 25 0 C 38.807103 0 50 11.1929 50 25 C 50 38.807106 38.807103 50 25 50 Z M 24.996105 42.50296 C 34.569624 42.50296 42.496096 34.559334 42.496096 25.00297 C 42.496096 15.429452 34.552441 7.502979 24.978921 7.502979 C 15.422558 7.502979 7.496115 15.429452 7.496115 25.00297 C 7.496115 34.559334 15.439742 42.50296 24.996105 42.50296 Z M 24.996105 39.586319 C 16.898075 39.586319 10.429941 33.100999 10.429941 25.00297 C 10.429941 16.904941 16.880889 10.419669 24.978921 10.419669 C 33.076953 10.419669 39.579406 16.904941 39.579406 25.00297 C 39.579406 33.100999 33.094136 39.586319 24.996105 39.586319 Z M 16.349049 31.900052 L 33.677483 31.900052 C 34.432383 31.900052 34.981384 31.402467 34.981384 30.68188 C 34.981384 29.961293 34.432383 29.480942 33.677483 29.480942 L 16.349049 29.480942 C 15.57699 29.480942 15.045099 29.961293 15.045099 30.68188 C 15.045099 31.402467 15.57699 31.900052 16.349049 31.900052 Z M 16.349049 26.203956 L 33.677483 26.203956 C 34.432383 26.203956 34.981384 25.723579 34.981384 24.985834 C 34.981384 24.265247 34.432383 23.784847 33.677483 23.784847 L 16.349049 23.784847 C 15.57699 23.784847 15.045099 24.265247 15.045099 24.985834 C 15.045099 25.723579 15.57699 26.203956 16.349049 26.203956 Z M 16.349049 20.525046 L 33.677483 20.525046 C 34.432383 20.525046 34.981384 20.044666 34.981384 19.306923 C 34.981384 18.586338 34.432383 18.105936 33.677483 18.105936 L 16.349049 18.105936 C 15.57699 18.105936 15.045099 18.586338 15.045099 19.306923 C 15.045099 20.044666 15.57699 20.525046 16.349049 20.525046 Z"/>
</svg>

<svg width="50" height="50" viewBox="0 0 50 50" xmlns="http://www.w3.org/2000/svg" xmlns:xlink="http://www.w3.org/1999/xlink">
	<path id="menu" fill="#currentcolor" fill-rule="evenodd" stroke="none" d="M25 50a25 25 0 1 1 0-50 25 25 0 0 1 0 50Zm0-7.5c9.57 0 17.5-7.94 17.5-17.5 0-9.57-7.95-17.5-17.52-17.5A17.61 17.61 0 0 0 7.5 25c0 9.56 7.94 17.5 17.5 17.5Zm0-2.91c-8.1 0-14.57-6.49-14.57-14.59a14.5 14.5 0 0 1 14.55-14.58c8.1 0 14.6 6.48 14.6 14.58S33.09 39.6 25 39.6Zm-8.65-7.69h17.33c.75 0 1.3-.5 1.3-1.22s-.55-1.2-1.3-1.2H16.35c-.77 0-1.3.48-1.3 1.2s.53 1.22 1.3 1.22Zm0-5.7h17.33c.75 0 1.3-.48 1.3-1.21 0-.72-.55-1.2-1.3-1.2H16.35c-.77 0-1.3.48-1.3 1.2 0 .73.53 1.21 1.3 1.21Zm0-5.67h17.33c.75 0 1.3-.49 1.3-1.22 0-.72-.55-1.2-1.3-1.2H16.35c-.77 0-1.3.48-1.3 1.2 0 .73.53 1.22 1.3 1.22Z"/>
</svg>
